public/img/navigation-menu/ACT_Notif_Icon.svg

<?xml version="1.0" encoding="UTF-8"?>
<svg width="27px" height="31px" viewBox="0 0 27 31" version="1.1" xmlns="http://www.w3.org/2000/svg" xmlns:xlink="http://www.w3.org/1999/xlink">
    <!-- Generator: Sketch 42 (36781) - http://www.bohemiancoding.com/sketch -->
    <title>Notifications</title>
    <desc>Created with Sketch.</desc>
    <defs></defs>
    <g id="Page-1" stroke="none" stroke-width="1" fill="none" fill-rule="evenodd">
        <g id="Home" transform="translate(-901.000000, -24.000000)">
            <g id="Menu">
                <g id="Notifications" transform="translate(901.000000, 24.000000)">
                    <polygon id="Fill-10" fill="#F16549" points="0.243437526 8.17115033 0.243437526 23.1696396 13.2121362 30.6719057 26.1838516 23.1696396 26.1838516 8.17115033 13.2121362 0.671905691"></polygon>
                    <path d="M11.0016073,20.9356099 L14.9638826,20.9356099 C15.0064281,21.4198514 14.5547605,21.9064768 14.0422203,21.9135975 C13.3311969,21.9235046 12.6197995,21.9244644 11.9088384,21.9133498 C11.4092956,21.905548 10.961493,21.4138762 11.0016073,20.9356099" id="Fill-4" fill="#FEFEFE"></path>
                    <path d="M11.9867449,10.1319474 C11.9683553,9.75656037 12.0920021,9.45002786 12.3923138,9.23343344 C12.7187449,8.99801548 13.0767813,8.96581734 13.4352229,9.14779876 C13.7868696,9.32628173 13.9711397,9.62470279 13.9773112,10.0209257 C13.9784956,10.0971486 13.9846982,10.1390372 14.0747449,10.1599969 C15.4170618,10.4724427 16.1920125,11.3632167 16.5968956,12.6224118 C16.9084904,13.5914211 17.0023709,14.5946718 16.9640021,15.6008947 C16.9070566,17.0942074 17.6269631,18.1172415 18.8427034,18.8717307 C18.933654,18.9281703 18.9722099,18.9819474 18.9693423,19.0886347 C18.9618618,19.3656006 18.9668177,19.6429071 18.9668177,19.9280774 L7.00085403,19.9280774 C7.00085403,19.6154768 6.99692675,19.303 7.00593455,18.9908638 C7.00705662,18.9527523 7.07244883,18.9079226 7.11711377,18.8809567 C7.61519169,18.5800279 8.04806442,18.2077059 8.39332156,17.7390372 C8.79533714,17.1933715 9.00011636,16.5826594 8.99447481,15.9054149 C8.98777351,15.1051672 9.01220987,14.3070867 9.15053714,13.5164365 C9.25040208,12.9455697 9.40895792,12.3933406 9.67819429,11.8756625 C10.1522722,10.9641455 10.8910358,10.3910805 11.8959501,10.1557245 C11.9207294,10.149935 11.9451969,10.1428762 11.9867449,10.1319474" id="Fill-1" fill="#FEFEFE"></path>
                </g>
            </g>
        </g>
    </g>
</svg>

<svg width="27" height="31" viewBox="0 0 27 31" xmlns="http://www.w3.org/2000/svg"><title>Notifications</title><g fill="none" fill-rule="evenodd"><path fill="#F16549" d="M.243 8.171V23.17l12.97 7.502 12.97-7.502V8.17l-12.97-7.5z"/><path d="M11.002 20.936h3.962c.042.484-.41.97-.922.978-.71.01-1.422.01-2.133 0-.5-.008-.948-.5-.907-.978M11.987 10.132c-.019-.375.105-.682.405-.899.327-.235.685-.267 1.043-.085a.939.939 0 0 1 .542.873c.001.076.008.118.098.139 1.342.312 2.117 1.203 2.522 2.462.311.97.405 1.973.367 2.979-.057 1.493.663 2.516 1.879 3.27.09.057.13.11.126.218-.007.277-.002.554-.002.84H7c0-.314-.004-.626.005-.938.001-.038.066-.083.111-.11a4.35 4.35 0 0 0 1.276-1.142 2.978 2.978 0 0 0 .601-1.834c-.006-.8.018-1.598.157-2.389.1-.57.258-1.123.527-1.64.474-.912 1.213-1.485 2.218-1.72l.09-.024" fill="#FEFEFE"/></g></svg>
